packages/ui-icons/svg/Line/rewind.svg

<svg viewBox="0 0 1920 1920" version="1.1" xmlns="http://www.w3.org/2000/svg">
    <path d="M1064.71853,308.989309 L0,959.644691 L1064.71853,1610.30007 L1064.71853,1087.93691 L1919.89309,1609.76552 L1919.89309,309.52386 L1064.71853,831.245559 L1064.71853,308.989309 Z M204.946823,959.644691 L957.701431,499.610168 L957.701431,1419.67921 L204.946823,959.644691 Z M1064.71853,962.745086 L1064.71853,956.437385 L1812.98291,499.930898 L1812.98291,1419.25157 L1064.71853,962.745086 Z" stroke="none" stroke-width="1" fill-rule="evenodd"/>
</svg>

<svg viewBox="0 0 1920 1920" version="1.1" xmlns="http://www.w3.org/2000/svg">
    <path d="M1064.719 308.99L0 959.644 1064.719 1610.3v-522.363l855.174 521.829V309.524L1064.72 831.246V308.989zM204.947 959.644L957.7 499.61v920.07L204.947 959.644zm859.772 3.1v-6.308l748.264-456.506v919.32l-748.264-456.506z" stroke="none" stroke-width="1" fill-rule="evenodd"/>
</svg>
